Themes/OneUI/assets/svg/phone-squircle.svg

<?xml version="1.0" encoding="UTF-8" standalone="no"?>
<svg
   width="20.600006"
   height="20.600018"
   viewBox="0 0 20.600006 20.600018"
   fill="none"
   version="1.1"
   id="svg1596"
   sodipodi:docname="phone-squircle.svg"
   xmlns:inkscape="http://www.inkscape.org/namespaces/inkscape"
   xmlns:sodipodi="http://sodipodi.sourceforge.net/DTD/sodipodi-0.dtd"
   xmlns="http://www.w3.org/2000/svg"
   xmlns:svg="http://www.w3.org/2000/svg">
  <sodipodi:namedview
     id="namedview1598"
     pagecolor="#ffffff"
     bordercolor="#666666"
     borderopacity="1.0"
     inkscape:showpageshadow="2"
     inkscape:pageopacity="0.0"
     inkscape:pagecheckerboard="0"
     inkscape:deskcolor="#d1d1d1" />
  <g
     clip-path="url(#clip0_1_1136)"
     id="g1589"
     transform="translate(-0.19998522,-0.20007372)">
    <path
       d="M 18.4869,2.51316 C 17.2171,1.31956 15.4836,0.642361 13.5707,0.389061 11.7439,0.146961 10.5,0.206561 10.5,0.206561 c 0,0 -1.2441,-0.0596 -3.071,0.1825 -1.9129,0.2533 -3.6462,0.930499 -4.9157,2.124099 -1.1939,1.2697 -1.871002,3.0031 -2.124402,4.916 -0.2421,1.8267 -0.1824,3.07084 -0.1824,3.07084 0,0 -0.0597,1.244 0.1824,3.0709 0.2534,1.9127 0.930502,3.6463 2.124302,4.9159 1.2696,1.1938 3.0029,1.8709 4.9158,2.1244 1.8269,0.242 3.071,0.1824 3.071,0.1824 0,0 1.2439,0.0596 3.0707,-0.1824 1.9129,-0.2535 3.6464,-0.9306 4.9159,-2.1244 1.1941,-1.2696 1.8711,-3.0032 2.1245,-4.9159 0.242,-1.8269 0.1824,-3.0709 0.1824,-3.0709 0,0 0.0596,-1.24414 -0.1824,-3.07084 -0.2534,-1.9129 -0.9304,-3.6463 -2.1242,-4.916 z"
       fill="#15b76d"
       id="path1585" />
    <path
       d="m 15.7833,13.2574 -0.9209,-0.9209 c -0.3541,-0.3541 -0.6375,-0.4958 -0.9208,-0.4958 -0.2833,0 -0.4958,0.0708 -0.85,0.425 l -0.3542,0.3542 c -0.3541,0.3541 -0.5666,0.425 -0.85,0.425 -0.2125,0 -0.4958,-0.1417 -0.5666,-0.2125 C 9.2666,11.6282 8.2749,9.92825 8.0624,9.57405 c 0,0 -0.1416,-0.2125 -0.1416,-0.425 0,-0.2833 0.0708,-0.4958 0.425,-0.85 l 0.3541,-0.3541 c 0.3542,-0.3542 0.425,-0.5667 0.425,-0.85 0,-0.2834 -0.1416,-0.5667 -0.4958,-0.9209 L 7.7083,5.25325 C 7.3541,4.89905 7.0708,4.75745 6.7874,4.75745 c -0.2833,0 -0.4958,0.0708 -0.85,0.425 -1.0625,1.0625 -1.275,2.0541 -1.2041,3.0458 0,0.6375 0.2125,1.3458 0.7083,2.05415 0,0 1.7,2.7625 4.9583,5.0291 0.0709,0 0.0709,0.0709 0.1417,0.0709 0.0708,0.0708 0.2125,0.1416 0.2125,0.1416 0.7792,0.4959 1.4167,0.6375 2.0542,0.7084 1.0625,0.0708 2.0541,-0.2125 3.0458,-1.2042 0.3542,-0.3542 0.425,-0.5667 0.425,-0.85 -0.0708,-0.2833 -0.1417,-0.5667 -0.4958,-0.9208 z"
       fill="#fafafa"
       id="path1587" />
  </g>
  <defs
     id="defs1594">
    <clipPath
       id="clip0_1_1136">
      <rect
         width="21"
         height="21"
         fill="#ffffff"
         id="rect1591"
         x="0"
         y="0" />
    </clipPath>
  </defs>
</svg>

<svg width="21" height="21" viewBox="0 0 21 21" fill="none" xmlns="http://www.w3.org/2000/svg">
<g clip-path="url(#clip0_1_1136)">
<path d="M18.4869 2.51316C17.2171 1.31956 15.4836 0.642361 13.5707 0.389061C11.7439 0.146961 10.5 0.206561 10.5 0.206561C10.5 0.206561 9.2559 0.146961 7.429 0.389061C5.5161 0.642361 3.7828 1.31956 2.5133 2.51316C1.3194 3.78286 0.642298 5.51626 0.388898 7.42916C0.146798 9.25586 0.206498 10.5 0.206498 10.5C0.206498 10.5 0.146798 11.744 0.388898 13.5709C0.642298 15.4836 1.3194 17.2172 2.5132 18.4868C3.7828 19.6806 5.5161 20.3577 7.429 20.6112C9.2559 20.8532 10.5 20.7936 10.5 20.7936C10.5 20.7936 11.7439 20.8532 13.5707 20.6112C15.4836 20.3577 17.2171 19.6806 18.4866 18.4868C19.6807 17.2172 20.3577 15.4836 20.6111 13.5709C20.8531 11.744 20.7935 10.5 20.7935 10.5C20.7935 10.5 20.8531 9.25586 20.6111 7.42916C20.3577 5.51626 19.6807 3.78286 18.4869 2.51316Z" fill="#15B76D"/>
<path d="M15.7833 13.2574L14.8624 12.3365C14.5083 11.9824 14.2249 11.8407 13.9416 11.8407C13.6583 11.8407 13.4458 11.9115 13.0916 12.2657L12.7374 12.6199C12.3833 12.974 12.1708 13.0449 11.8874 13.0449C11.6749 13.0449 11.3916 12.9032 11.3208 12.8324C9.2666 11.6282 8.2749 9.92825 8.0624 9.57405C8.0624 9.57405 7.9208 9.36155 7.9208 9.14905C7.9208 8.86575 7.9916 8.65325 8.3458 8.29905L8.6999 7.94495C9.0541 7.59075 9.1249 7.37825 9.1249 7.09495C9.1249 6.81155 8.9833 6.52825 8.6291 6.17405L7.7083 5.25325C7.3541 4.89905 7.0708 4.75745 6.7874 4.75745C6.5041 4.75745 6.2916 4.82825 5.9374 5.18245C4.8749 6.24495 4.6624 7.23655 4.7333 8.22825C4.7333 8.86575 4.9458 9.57405 5.4416 10.2824C5.4416 10.2824 7.1416 13.0449 10.3999 15.3115C10.4708 15.3115 10.4708 15.3824 10.5416 15.3824C10.6124 15.4532 10.7541 15.524 10.7541 15.524C11.5333 16.0199 12.1708 16.1615 12.8083 16.2324C13.8708 16.3032 14.8624 16.0199 15.8541 15.0282C16.2083 14.674 16.2791 14.4615 16.2791 14.1782C16.2083 13.8949 16.1374 13.6115 15.7833 13.2574Z" fill="#FAFAFA"/>
</g>
<defs>
<clipPath id="clip0_1_1136">
<rect width="21" height="21" fill="white"/>
</clipPath>
</defs>
</svg>
